packages/ui-solid/icons/smile_24.svg

<svg width="24" height="24" viewBox="0 0 24 24" fill="none" xmlns="http://www.w3.org/2000/svg">
<path d="M10.7147 9.72917C10.7147 10.4299 10.235 10.998 9.64323 10.998C9.05147 10.998 8.57175 10.4299 8.57175 9.72917C8.57175 9.0284 9.05147 8.46031 9.64323 8.46031C10.235 8.46031 10.7147 9.0284 10.7147 9.72917Z" fill="#007AFF"/>
<path d="M15.8579 9.72917C15.8579 10.4299 15.3781 10.998 14.7864 10.998C14.1946 10.998 13.7149 10.4299 13.7149 9.72917C13.7149 9.0284 14.1946 8.46031 14.7864 8.46031C15.3781 8.46031 15.8579 9.0284 15.8579 9.72917Z" fill="#007AFF"/>
<path fill-rule="evenodd" clip-rule="evenodd" d="M12.0005 4.28476C7.75213 4.28476 4.32859 7.68026 4.32859 11.8438C4.32859 16.0073 7.75213 19.4028 12.0005 19.4028C16.2488 19.4028 19.6724 16.0073 19.6724 11.8438C19.6724 7.68026 16.2488 4.28476 12.0005 4.28476ZM2.52859 11.8438C2.52859 6.66373 6.78059 2.48476 12.0005 2.48476C17.2204 2.48476 21.4724 6.66373 21.4724 11.8438C21.4724 17.0238 17.2204 21.2028 12.0005 21.2028C6.78059 21.2028 2.52859 17.0238 2.52859 11.8438ZM15.3015 13.1102C15.7699 13.2764 16.015 13.7908 15.8489 14.2593L15.0007 13.9585C15.8489 14.2593 15.8487 14.2598 15.8485 14.2604L15.8481 14.2615L15.8473 14.2638L15.8454 14.269L15.8408 14.2812C15.8374 14.2902 15.8333 14.3009 15.8284 14.3131C15.8186 14.3376 15.8056 14.3684 15.7891 14.4046C15.7561 14.4769 15.7088 14.5715 15.6442 14.6808C15.5153 14.8988 15.3145 15.1806 15.017 15.4602C14.4055 16.035 13.4369 16.5503 12.0005 16.5503C10.5641 16.5503 9.59551 16.035 8.98399 15.4603C8.68653 15.1807 8.48571 14.8989 8.35682 14.6809C8.29219 14.5715 8.24487 14.4769 8.21192 14.4046C8.19541 14.3685 8.18242 14.3377 8.17259 14.3132C8.16767 14.301 8.16353 14.2903 8.16013 14.2813L8.15558 14.269L8.15371 14.2639L8.15287 14.2616L8.15247 14.2604C8.15228 14.2599 8.1521 14.2594 9.00033 13.9585L8.1521 14.2594C7.98595 13.7909 8.23102 13.2765 8.69948 13.1103C9.16324 12.9458 9.67208 13.1844 9.84344 13.6437C9.84445 13.6461 9.8465 13.6509 9.84968 13.6578C9.85891 13.6781 9.87722 13.7156 9.90635 13.7649C9.96497 13.8641 10.0642 14.0052 10.2167 14.1486C10.5053 14.4198 11.0368 14.7503 12.0005 14.7503C12.9642 14.7503 13.4957 14.4198 13.7842 14.1486C13.9368 14.0052 14.036 13.864 14.0946 13.7649C14.1237 13.7156 14.1421 13.678 14.1513 13.6578C14.1545 13.6508 14.1565 13.646 14.1575 13.6436C14.3289 13.1843 14.8377 12.9458 15.3015 13.1102ZM9.84783 13.6557C9.84784 13.6557 9.84785 13.6557 9.84786 13.6557C9.84809 13.6564 9.84832 13.657 9.84856 13.6577L9.04416 13.943C9.84855 13.6577 9.84837 13.6572 9.84819 13.6567L9.84786 13.6557L9.84784 13.6557L9.84783 13.6557Z" fill="#007AFF"/>
</svg>

<svg xmlns="http://www.w3.org/2000/svg" width="24" height="24" fill="none"><path fill="currentColor" d="M10.715 9.73c0 .7-.48 1.268-1.072 1.268s-1.071-.568-1.071-1.269c0-.7.48-1.269 1.071-1.269.592 0 1.072.568 1.072 1.27m5.143 0c0 .7-.48 1.268-1.072 1.268-.591 0-1.071-.568-1.071-1.269 0-.7.48-1.269 1.071-1.269.592 0 1.072.568 1.072 1.27"/><path fill="currentColor" fill-rule="evenodd" d="M12 4.285c-4.248 0-7.671 3.395-7.671 7.559S7.752 19.403 12 19.403s7.671-3.396 7.671-7.56S16.248 4.285 12 4.285m-9.47 7.559c0-5.18 4.252-9.36 9.472-9.36s9.471 4.18 9.471 9.36-4.252 9.359-9.471 9.359-9.472-4.18-9.472-9.36m12.773 1.266a.9.9 0 0 1 .547 1.15l-.85-.301.848.301v.002l-.002.002-.002.005-.004.012a2 2 0 0 1-.052.124c-.033.072-.08.167-.145.276-.129.218-.33.5-.627.78-.611.574-1.58 1.09-3.016 1.09-1.437 0-2.405-.516-3.017-1.09a3.6 3.6 0 0 1-.627-.78 3 3 0 0 1-.197-.4l-.004-.012-.002-.005-.001-.002v-.002L9 13.96l-.848.3a.9.9 0 1 1 1.698-.601q.013.032.056.107c.059.1.158.24.31.384.29.27.82.601 1.785.601.963 0 1.495-.33 1.783-.601a1.8 1.8 0 0 0 .367-.491l.007-.014a.9.9 0 0 1 1.144-.534m-5.454.546v.002l-.804.285c.805-.285.804-.286.804-.286z" clip-rule="evenodd"/></svg>
